packages/core/src/svgs/tokens/mono/GRAIL.svg

<svg width="24" height="24" viewBox="0 0 24 24" fill="none" xmlns="http://www.w3.org/2000/svg">
<path d="M13.875 21.9995V13.875C15.8373 14.0874 17.0311 14.8873 17.0311 14.8873L18.2809 13.4812C16.2311 12.0187 13.2311 11.9999 13.2311 11.9999L12.6812 6.43777C12.8565 6.3212 12.9985 6.16122 13.0936 5.97342C13.1887 5.78563 13.2335 5.57641 13.2235 5.36616C13.2138 5.1559 13.1496 4.95178 13.0375 4.77368C12.9253 4.59557 12.769 4.44954 12.5837 4.34982C12.3983 4.25011 12.1902 4.2001 11.9798 4.20467C11.7694 4.20924 11.5638 4.26823 11.3828 4.37591C11.202 4.48357 11.052 4.63625 10.9478 4.81906C10.8435 5.00188 10.7882 5.20859 10.7875 5.41908C10.7875 5.8503 11.0063 6.23153 11.3376 6.43777L10.75 11.9999C10.75 11.9999 7.79397 12.0125 5.73782 13.4812L6.98776 14.8873C6.98776 14.8873 8.16271 14.0874 10.1252 13.875V21.9995C2.45048 16.3186 1.98175 8.0689 2.0005 5.33158C2.0005 4.76286 2.34424 4.23789 2.86296 4.01289C5.74167 2.73249 8.84975 2.04795 12.0001 2.00049C16.1061 2.00049 19.6059 3.33168 21.1371 4.01289C21.6558 4.23789 21.9995 4.76286 21.9995 5.32532C22.0183 8.07517 21.5308 16.3248 13.875 21.9995Z" fill="white"/>
</svg>

<svg xmlns="http://www.w3.org/2000/svg" width="24" height="24" fill="none" viewBox="0 0 24 24">
    <path fill="#fff" d="M13.875 22v-8.125c1.962.212 3.156 1.012 3.156 1.012l1.25-1.406C16.23 12.02 13.23 12 13.23 12l-.55-5.562a1.219 1.219 0 1 0-1.893-1.019c0 .431.218.813.55 1.019L10.75 12s-2.956.012-5.012 1.481l1.25 1.406s1.175-.8 3.137-1.012V22C2.45 16.319 1.982 8.069 2.001 5.332c0-.57.343-1.094.862-1.32A23.35 23.35 0 0 1 12 2c4.106 0 7.606 1.332 9.137 2.013.519.225.863.75.863 1.312.018 2.75-.47 11-8.125 16.675"/>
</svg>
